X: 99
T:Eu teño un canciño
M:3/8
L:1/8
Q:50
C:Trad
R:Jota
K:C
E | G{C}GA | F{C}FG | EC"~"E | D2 E | F{C}FG | E{C}EF | DB,"~"D | C2 E/2
F/2 |
G{C}GA | F2 G| ECE | D2 E | F{C}FG | E{C}EF | DB,"~"D | C3- | C3- | CD/2
C/2B,/2"F."G/2
|: B,/2"F."G/2B,>C | DE/2D/2C- | C3- | CE/2D/2C/2"F."G/2 | C/2"F."G/2C>D
 | EF/2E/2D- |1 D3- D/2"F."c/2D/2C/2B,/2"F."G/2 :|2 F2 E | 
G2F- | FB,C | DE/2D/2C- | C3- | CE/2D/2C/2"F."G/2 | C/2"F."G/2C>D | EF/2
E/2D | F2E | G2F- | FB,C|
DE/2D/2C- | C3- |C2||

